public/img/success.svg

<svg width="59" height="59" viewBox="0 0 59 59" fill="none" xmlns="http://www.w3.org/2000/svg">
<path d="M29.5 59C45.7924 59 59 45.7924 59 29.5C59 13.2076 45.7924 0 29.5 0C13.2076 0 0 13.2076 0 29.5C0 45.7924 13.2076 59 29.5 59Z" fill="#32BA7C"/>
<path d="M21.9619 42.8078L37.1307 57.9766C49.6938 54.6264 58.9998 43.1801 58.9998 29.5003C58.9998 29.2211 58.9998 28.9419 58.9998 28.6627L47.0881 17.6816L21.9619 42.8078Z" fill="#0AA06E"/>
<path d="M30.2438 36.1071C31.5466 37.4099 31.5466 39.6433 30.2438 40.9462L27.545 43.6449C26.2422 44.9478 24.0087 44.9478 22.7059 43.6449L10.8873 31.7332C9.58445 30.4304 9.58445 28.197 10.8873 26.8941L13.586 24.1954C14.8889 22.8926 17.1223 22.8926 18.4251 24.1954L30.2438 36.1071Z" fill="white"/>
<path d="M40.5734 15.5411C41.8762 14.2383 44.1096 14.2383 45.4125 15.5411L48.1112 18.2398C49.4141 19.5427 49.4141 21.7761 48.1112 23.0789L27.638 43.4591C26.3352 44.7619 24.1018 44.7619 22.7989 43.4591L20.1002 40.7603C18.7973 39.4575 18.7973 37.2241 20.1002 35.9212L40.5734 15.5411Z" fill="white"/>
</svg>

<svg width="59" height="59" viewBox="0 0 59 59" fill="none" xmlns="http://www.w3.org/2000/svg"><path d="M29.5 59C45.792 59 59 45.792 59 29.5S45.792 0 29.5 0 0 13.208 0 29.5 13.208 59 29.5 59z" fill="#32BA7C"/><path d="M21.962 42.808L37.13 57.977C49.694 54.627 59 43.18 59 29.5v-.837L47.088 17.682 21.962 42.808z" fill="#0AA06E"/><path d="M30.244 36.107c1.303 1.303 1.303 3.536 0 4.84l-2.699 2.698c-1.303 1.303-3.536 1.303-4.84 0L10.888 31.733c-1.303-1.303-1.303-3.536 0-4.839l2.699-2.699c1.303-1.302 3.536-1.302 4.84 0l11.818 11.912z" fill="#fff"/><path d="M40.573 15.541c1.303-1.303 3.537-1.303 4.84 0l2.698 2.699c1.303 1.303 1.303 3.536 0 4.839l-20.473 20.38c-1.303 1.303-3.536 1.303-4.84 0L20.1 40.76c-1.303-1.302-1.303-3.536 0-4.839l20.473-20.38z" fill="#fff"/></svg>
